X:6798
T:the French Taptoo
O:england
M:2/4
L:1/8
K:G
D2 |\
G2B2 A2G2 | d4 B2d2 | e2d2 c2B2 | AGAB A2D2 |\
G2B2 A2G2 | d4 B2d2 | e2d2 c2B2 | A6 :|
|:c2 | \
e2c2 A2Bc | d2B2 G3d | c2B2 A2G2 | AGFE D2Bc | \
d2Bc d2AB | c2AB c2dc | BAGA D2F2 | G6 :|


